X: 21
T:The Templehouse (version)
M:4/4
L:1/8
S:Des Donelly (fiddle)
R:Reel
D:From an ancient tape
N:As played
Z:Bernie Stocks
K:G
E2GE BEGB | AF~F2 DEFD | E2(3.G.G.E BEGB | cB(3cBA BEED |  EFGA BA^GB | 
AF~F2 DEFD | E2(3.G.F.E BEGA | BdcA BE{G}ED | +E3B,3+E BE~E2 | 
D2FD +A4D4+ | E2GE BEGA | BdcA BE{G}ED | EFGA BAGB | AF~F2 DEFD | 
E2GE BEGA | (3Bcd cA BEEf |: gfef gfea | fd(3.d.d.d bdad | gfef gfe^d | 
efga bgef | g2g2- gbag | fd~d2 Adfd | efge (3agf ge | dBcA BEE2 :|
<end>
<start>
